X:433
T:Lord How’s Hornpipe. RH.434
T:Fisher’s Hornpipe,aka. RH.434
R:.hornpipe
S:Rev.R.Harrison’s MS,c1815,Cumbria
N:see #395
O:England
A:Temple Sowerby,Cumbria
Z:vmp.Simon Wilson. Review PJH, 2008.
M:C
L:1/8
Q:2/4=75
K:G
gdBd cedc|BdBd cedc|BdBG cAcA|BGBG AFED|!
gdBd cedc|BdBd cedc|Bgec’ bagf|g2g2 g2z2:|!
|:afdf afc’a|bgdg bgd’b|afaf afc’b|agfe d4|!
ecGc ecge|dBGB dBgd|ecge dcBA|G2G2 G2z2:|

